icons/moon-foggy-fill.svg

<svg xmlns="http://www.w3.org/2000/svg" width="24" height="24" fill="none"><g clip-path="url(#a)"><g><path fill="#121212" d="M16 20.3341V18.0001H14V14.0001H3.332C3.11085 13.1852 2.9992 12.3444 3 11.5001C3 6.94006 6.213 3.13006 10.5 2.21106C9.92557 3.75369 9.84099 5.43596 10.2578 7.02843C10.6746 8.62089 11.5725 10.046 12.829 11.1094C14.0856 12.1728 15.6395 12.8227 17.279 12.9705C18.9185 13.1182 20.5636 12.7567 21.99 11.9351C21.9062 13.7633 21.2964 15.5284 20.2339 17.0185C19.1713 18.5086 17.7011 19.6602 16 20.3351V20.3341ZM7 20.0001H14V22.0001H7V20.0001ZM2 16.0001H12V18.0001H2V16.0001Z"/></g></g><defs><clipPath id="a"><rect width="24" height="24" fill="white"/></clipPath></defs></svg>

<svg width="24" height="24" fill="none" xmlns="http://www.w3.org/2000/svg"><g clip-path="url(#a)"><path d="M16 20.334V18h-2v-4H3.332A9.511 9.511 0 0 1 3 11.5c0-4.56 3.213-8.37 7.5-9.289a8 8 0 0 0 11.49 9.724 9.506 9.506 0 0 1-5.99 8.4ZM7 20h7v2H7v-2Zm-5-4h10v2H2v-2Z" /></g><defs><clipPath id="a"><path fill="#fff" d="M0 0h24v24H0z"/></clipPath></defs></svg>
